src/assets/logo.svg

<svg fill="none" height="161" viewBox="0 0 480 161" width="480" xmlns="http://www.w3.org/2000/svg"><g fill="#faf7f5"><path d="m151.009 10.3151h-9.956v55.623h9.956v-22.7789h29.975v-9.9592h-29.975zm39.932 65.5822h-39.932v-9.9592h39.932zm0-65.5822h-39.932v-9.959153h39.932z"/><path d="m221.385 75.8973h10.062v-67.17141h25.209v-8.47589h-60.48v8.47589h25.209z"/><path d="m265.047 75.8973h10.062v-34.6452h39.826v34.6452h10.062v-75.6473h-10.062v32.5262h-39.826v-32.5262h-10.062z"/><path d="m190.941 150.291v9.959h-39.932v-9.959zm-49.888-65.5824h9.956v65.5824h-9.956z"/><path d="m220.855 94.6678v-9.9592h19.913v9.9592zm0 9.9592h-9.956v-9.9592h9.956zm39.826 0v55.623h-9.956v-22.779h-39.826v22.779h-9.956v-55.623h9.956v22.885h39.826v-22.885zm-19.913 0v-9.9592h9.957v9.9592z"/><path d="m291.101 160.25h10.063v-67.1714h25.209v-8.4759h-60.48v8.4759h25.208z"/><path d="m351.393 94.6678v-9.9592h19.912v9.9592zm0 9.9592h-9.957v-9.9592h9.957zm39.825 0v55.623h-9.956v-22.779h-39.826v22.779h-9.956v-55.623h9.956v22.885h39.826v-22.885zm-19.913 0v-9.9592h9.957v9.9592z"/><path d="m404.692 160.25h9.532v-62.9335h.212l23.62 62.9335h8.58l23.62-62.9335h.211v62.9335h9.533v-75.6473h-13.769l-23.938 63.5693-23.832-63.5693h-13.769z"/><path d="m71.5789.25-17.8947 26.6667-17.8947-26.6667z"/><path d="m53.6842 73.2325-4.5614 7.0175 4.5614 7.0175 4.5614-7.0175z"/><g clip-rule="evenodd" fill-rule="evenodd"><path d="m53.6842 55.6886-16.4912 24.5614 16.4912 24.561 16.4912-24.561zm0 7.0175-11.5789 17.5439 11.5789 17.5439 11.579-17.5439z"/><path d="m25.2632 80.25 28.421-42.807 28.4211 42.807-28.4211 42.807zm4.9122 0 23.5088-35.0877 23.5088 35.0877-23.5088 35.088z"/><path d="m71.5789 53.5833 17.8948-26.6666h-35.7895-35.7895l17.8948 26.6666h-35.7895l17.8947 26.6667-17.8947 26.667h35.7895l-17.8948 26.666h35.7895l-17.8947 26.667h35.7894l-17.8947-26.667h35.7895l-17.8948-26.666h35.7891l-17.8943-26.667 17.8943-26.6667zm0 0-17.8947-26.6666-17.8947 26.6666-17.8948 26.6667 17.8948 26.667 17.8947 26.666 17.8947-26.666 17.8948-26.667z"/></g></g></svg>

<svg width="480" height="161" viewBox="0 0 480 161" fill="none" xmlns="http://www.w3.org/2000/svg">
<path d="M151.009 10.3151H141.053V65.9381H151.009V43.1592H180.984V33.2H151.009V10.3151ZM190.941 75.8973H151.009V65.9381H190.941V75.8973ZM190.941 10.3151H151.009V0.355947H190.941V10.3151Z" fill="#FAF7F5"/>
<path d="M221.385 75.8973H231.447V8.72589H256.656V0.25H196.176V8.72589H221.385V75.8973Z" fill="#FAF7F5"/>
<path d="M265.047 75.8973H275.109V41.2521H314.935V75.8973H324.997V0.25H314.935V32.7762H275.109V0.25H265.047V75.8973Z" fill="#FAF7F5"/>
<path d="M190.941 150.291V160.25H151.009V150.291H190.941ZM141.053 84.7086H151.009V150.291H141.053V84.7086Z" fill="#FAF7F5"/>
<path d="M220.855 94.6678V84.7086H240.768V94.6678H220.855ZM220.855 104.627H210.899V94.6678H220.855V104.627ZM260.681 104.627V160.25H250.725V137.471H210.899V160.25H200.943V104.627H210.899V127.512H250.725V104.627H260.681ZM240.768 104.627V94.6678H250.725V104.627H240.768Z" fill="#FAF7F5"/>
<path d="M291.101 160.25H301.164V93.0786H326.373V84.6027H265.893V93.0786H291.101V160.25Z" fill="#FAF7F5"/>
<path d="M351.393 94.6678V84.7086H371.305V94.6678H351.393ZM351.393 104.627H341.436V94.6678H351.393V104.627ZM391.218 104.627V160.25H381.262V137.471H341.436V160.25H331.48V104.627H341.436V127.512H381.262V104.627H391.218ZM371.305 104.627V94.6678H381.262V104.627H371.305Z" fill="#FAF7F5"/>
<path d="M404.692 160.25H414.224V97.3165H414.436L438.056 160.25H446.636L470.256 97.3165H470.467V160.25H480V84.6027H466.231L442.293 148.172L418.461 84.6027H404.692V160.25Z" fill="#FAF7F5"/>
<path d="M71.5789 0.25L53.6842 26.9167L35.7895 0.25H71.5789Z" fill="#FAF7F5"/>
<path d="M53.6842 73.2325L49.1228 80.25L53.6842 87.2675L58.2456 80.25L53.6842 73.2325Z" fill="#FAF7F5"/>
<path fill-rule="evenodd" clip-rule="evenodd" d="M53.6842 55.6886L37.193 80.25L53.6842 104.811L70.1754 80.25L53.6842 55.6886ZM53.6842 62.7061L42.1053 80.25L53.6842 97.7939L65.2632 80.25L53.6842 62.7061Z" fill="#FAF7F5"/>
<path fill-rule="evenodd" clip-rule="evenodd" d="M25.2632 80.25L53.6842 37.443L82.1053 80.25L53.6842 123.057L25.2632 80.25ZM30.1754 80.25L53.6842 45.1623L77.193 80.25L53.6842 115.338L30.1754 80.25Z" fill="#FAF7F5"/>
<path fill-rule="evenodd" clip-rule="evenodd" d="M71.5789 53.5833L89.4737 26.9167H53.6842H17.8947L35.7895 53.5833H0L17.8947 80.25L0 106.917H35.7895L17.8947 133.583H53.6842L35.7895 160.25H71.5789L53.6842 133.583H89.4737L71.5789 106.917H107.368L89.4737 80.25L107.368 53.5833H71.5789ZM71.5789 53.5833L53.6842 26.9167L35.7895 53.5833L17.8947 80.25L35.7895 106.917L53.6842 133.583L71.5789 106.917L89.4737 80.25L71.5789 53.5833Z" fill="#FAF7F5"/>
</svg>
